X: 1
T: Crail
Z: Adapted by Bruce Shawyer
B: Kerr's
R: Strathspey
K: D
M: 4/4
L: 1/16
|: "D"D4 F3G "A7"AF3 E3F | "D"Dd3 d3e "D7"d3c B3A | "G"BB3 d3B "D"AA3 d3A | "Em"G3F E3D "A7"CE3 EF3 :|
| "D"Dd3 d3e f3e d3A | "G"BB3 b3a g3f e3d | "G"BB3 d3B "D"AA3 d3f | "Em"g3f e3d "A7"ce3 ef3 ||
| "D"Dd3 d3e f3e d3A | "G"BB3 b3a g3f e3d | "G"BB3 d3B "D"AA3 d3f | "A7"e3d e3f "D"d6 |]
